packages/components/icons/assets/ShareExpand.svg

<svg viewBox="0 0 24 24" xmlns="http://www.w3.org/2000/svg" data-title="ShareExpand" fill="currentColor" stroke="none">
  <path fill-rule="evenodd" clip-rule="evenodd" d="M21 12.3917C20.45 12.3917 20 12.8417 20 13.3917V19.625C20 19.725 19.9583 19.825 19.8833 19.9C19.8083 19.975 19.7167 20.0167 19.6083 20.0167H4.38333C4.28333 20.0167 4.18333 19.975 4.10833 19.9C4.03333 19.825 3.99167 19.7333 3.99167 19.625V4.39167C3.99167 4.29167 4.03333 4.19167 4.10833 4.11667C4.18333 4.04167 4.275 4 4.38333 4H10.6167C11.1667 4 11.6167 3.55 11.6167 3C11.6167 2.45 11.1667 2 10.6167 2H4.38333C3.75 2 3.14167 2.25 2.7 2.7C2.25 3.15 2 3.75 2 4.38333V19.6167C2 20.25 2.25 20.8583 2.7 21.3C3.15 21.75 3.75 22 4.38333 22H19.6167C20.25 22 20.8583 21.75 21.3 21.3C21.75 20.85 22 20.25 22 19.6167V13.3833C22 12.8333 21.55 12.3833 21 12.3833V12.3917Z"/>
  <path fill-rule="evenodd" clip-rule="evenodd" d="M21.925 2.625C21.825 2.38333 21.625 2.18333 21.3833 2.08333C21.2583 2.03333 21.1333 2.00833 21 2.00833H16.15C15.6 2.00833 15.15 2.45833 15.15 3.00833C15.15 3.55833 15.6 4.00833 16.15 4.00833H18.5833L11.2917 11.3C10.9 11.6917 10.9 12.325 11.2917 12.7167C11.6833 13.1083 12.3167 13.1083 12.7083 12.7167L20 5.425V7.85833C20 8.40833 20.45 8.85833 21 8.85833C21.55 8.85833 22 8.40833 22 7.85833V3.00833C22 2.875 21.975 2.75 21.925 2.625Z"/>
</svg>

<svg viewBox="0 0 24 24" xmlns="http://www.w3.org/2000/svg" data-title="ShareExpand" fill="currentColor" stroke="none">
  <path fill-rule="evenodd" d="m21,12.39c-.55,0-1,.45-1,1v6.23c0,.1-.04.2-.12.27s-.17.12-.28.12H4.38c-.1,0-.2-.04-.28-.12-.07-.07-.12-.17-.12-.27V4.39c0-.1.04-.2.12-.28s.17-.12.28-.12h6.23c.55,0,1-.45,1-1s-.45-1-1-1h-6.23c-.63,0-1.24.25-1.68.7-.45.45-.7,1.05-.7,1.68v15.23c0,.63.25,1.24.7,1.68.45.45,1.05.7,1.68.7h15.23c.63,0,1.24-.25,1.68-.7.45-.45.7-1.05.7-1.68v-6.23c0-.55-.45-1-1-1h0Z"/>
  <path fill-rule="evenodd" d="m21.92,2.62c-.1-.24-.3-.44-.54-.54-.12-.05-.25-.07-.38-.07h-4.85c-.55,0-1,.45-1,1s.45,1,1,1h2.43l-7.29,7.29c-.39.39-.39,1.02,0,1.42.39.39,1.02.39,1.42,0l7.29-7.29v2.43c0,.55.45,1,1,1s1-.45,1-1V3.01c0-.13-.02-.26-.08-.38Z"/>
</svg>
